;FLAVOR:UltiGCode
;TIME:4417
;MATERIAL:8219
;MATERIAL2:0
;NOZZLE_DIAMETER:0.4
;MINX:79.477
;MINY:79.776
;MINZ:0.27
;MAXX:143.524
;MAXY:143.224
;MAXZ:9.87
;Generated with Cura_SteamEngine 5.2.1
M82 ;absolute extrusion mode
G0 F3000 Y50 ;avoid prime blob
G92 E0
G92 E0
G10
;LAYER_COUNT:65
;LAYER:0
M107
G0 F4500 X80.544 Y92.671 Z0.27
;TYPE:SKIRT
G11
G1 F1800 X81.421 Y91.922 E0.12456
G1 X82.308 Y91.183 E0.24924
G1 X84.362 Y89.372 E0.54499
G1 X86.354 Y87.514 E0.83918
G1 X88.292 Y85.601 E1.13328
G1 X90.172 Y83.636 E1.42698
G1 X92.555 Y80.981 E1.81228
G1 X92.942 Y80.61 E1.87018
G1 X93.38 Y80.3 E1.92814
G1 X93.859 Y80.059 E1.98605
G1 X94.368 Y79.892 E2.0439
G1 X94.964 Y79.791 E2.10919
G1 X95.829 Y79.776 E2.20262
G1 X127.116 Y79.777 E5.58162
G1 X127.817 Y79.787 E5.65733
G1 X128.352 Y79.835 E5.71535
G1 X128.873 Y79.961 E5.77324
G1 X129.369 Y80.164 E5.83112
G1 X129.83 Y80.438 E5.88903
G1 X130.475 Y81.005 E5.98178
G1 X132.015 Y82.753 E6.23338
G1 X133.871 Y84.74 E6.52703
G1 X135.787 Y86.681 E6.82159
G1 X137.754 Y88.563 E7.1156
G1 X139.777 Y90.391 E7.41007
G1 X142.246 Y92.49 E7.76006
G1 X142.627 Y92.867 E7.81794
G1 X142.949 Y93.296 E7.87588
G1 X143.203 Y93.769 E7.93386
G1 X143.384 Y94.273 E7.99169
G1 X143.508 Y94.903 E8.06104
G1 X143.524 Y95.829 E8.16106
G1 X143.523 Y127.116 E11.54006
G1 X143.513 Y127.817 E11.61577
G1 X143.465 Y128.352 E11.67379
G1 X143.339 Y128.873 E11.73168
G1 X143.136 Y129.369 E11.78956
G1 X142.862 Y129.83 E11.84748
G1 X142.456 Y130.328 E11.91687
G1 X141.609 Y131.053 E12.03728
G1 X140.738 Y131.777 E12.1596
G1 X138.728 Y133.545 E12.44871
G1 X136.712 Y135.421 E12.74612
G1 X134.775 Y137.33 E13.03984
G1 X132.895 Y139.291 E13.33323
G1 X130.444 Y142.02 E13.72939
G1 X130.057 Y142.391 E13.78729
G1 X129.619 Y142.7 E13.84518
G1 X129.14 Y142.941 E13.90309
G1 X128.631 Y143.109 E13.96098
G1 X128.034 Y143.21 E14.02637
G1 X127.171 Y143.224 E14.11959
G1 X95.884 Y143.223 E17.49858
G1 X95.184 Y143.213 E17.57419
G1 X94.649 Y143.165 E17.6322
G1 X94.128 Y143.039 E17.69009
G1 X93.632 Y142.836 E17.74797
G1 X93.171 Y142.562 E17.80589
G1 X92.529 Y141.999 E17.89811
G1 X91.007 Y140.273 E18.14664
G1 X89.112 Y138.242 E18.44664
G1 X87.215 Y136.32 E18.73829
G1 X85.247 Y134.437 E19.03246
G1 X83.212 Y132.597 E19.32876
G1 X80.756 Y130.51 E19.67684
G1 X80.374 Y130.134 E19.73473
G1 X80.053 Y129.704 E19.79268
G1 X79.799 Y129.232 E19.85057
G1 X79.617 Y128.727 E19.90854
G1 X79.493 Y128.099 E19.97767
G1 X79.477 Y127.215 E20.07316
G1 X79.478 Y95.883 E23.45702
G1 X79.488 Y95.181 E23.53284
G1 X79.536 Y94.647 E23.59075
G1 X79.662 Y94.125 E23.64874
G1 X79.865 Y93.629 E23.70662
G1 X80.139 Y93.168 E23.76454
G1 X80.544 Y92.671 E23.83378
G0 F4500 X81.01 Y92.799
G1 F1800 X81.677 Y92.229 E23.92854
G1 X82.565 Y91.489 E24.05338
G1 X84.634 Y89.666 E24.35119
G1 X86.625 Y87.808 E24.64531
G1 X88.596 Y85.861 E24.94452
G1 X90.461 Y83.912 E25.23586
G1 X93.08 Y80.996 E25.65916
G1 X93.636 Y80.614 E25.73201
G1 X94.577 Y80.254 E25.84082
G1 X95.18 Y80.186 E25.90636
G1 X95.829 Y80.176 E25.97646
G1 X127.111 Y80.177 E29.35492
G1 X128.151 Y80.192 E29.46725
G1 X128.805 Y80.36 E29.54017
G1 X129.695 Y80.834 E29.64908
G1 X130.187 Y81.283 E29.72101
G1 X131.722 Y83.024 E29.97169
G1 X133.577 Y85.011 E30.26526
G1 X135.527 Y86.985 E30.56494
G1 X137.475 Y88.85 E30.8562
G1 X139.516 Y90.694 E31.15326
G1 X142.245 Y93.014 E31.54011
G1 X142.642 Y93.561 E31.6131
G1 X142.872 Y94.011 E31.66768
G1 X143.027 Y94.492 E31.72226
G1 X143.114 Y95.179 E31.79705
G1 X143.124 Y95.829 E31.86726
G1 X143.123 Y127.111 E35.24571
G1 X143.108 Y128.151 E35.35805
G1 X142.94 Y128.805 E35.43097
G1 X142.466 Y129.695 E35.53987
G1 X141.994 Y130.197 E35.61429
G1 X141.353 Y130.745 E35.70537
G1 X140.502 Y131.452 E35.82486
G1 X138.455 Y133.253 E36.11932
G1 X136.424 Y135.142 E36.41888
G1 X134.488 Y137.051 E36.71252
G1 X132.608 Y139.013 E37.00599
G1 X129.919 Y142.006 E37.44053
G1 X129.363 Y142.387 E37.51332
G1 X128.907 Y142.604 E37.56786
G1 X128.422 Y142.746 E37.62244
G1 X127.82 Y142.814 E37.68787
G1 X127.171 Y142.824 E37.75797
G1 X95.889 Y142.823 E41.13643
G1 X94.85 Y142.808 E41.24865
G1 X94.196 Y142.64 E41.32157
G1 X93.306 Y142.166 E41.43048
G1 X92.82 Y141.724 E41.50143
G1 X91.299 Y139.999 E41.7498
G1 X89.424 Y137.989 E42.04667
G1 X87.475 Y136.016 E42.34619
G1 X85.528 Y134.152 E42.6373
G1 X83.471 Y132.293 E42.93673
G1 X80.756 Y129.985 E43.32158
G1 X80.359 Y129.44 E43.3944
G1 X79.974 Y128.508 E43.50331
G1 X79.888 Y127.825 E43.57766
G1 X79.877 Y127.215 E43.64355
G1 X79.878 Y95.888 E47.02686
G1 X79.893 Y94.847 E47.1393
G1 X80.061 Y94.193 E47.21223
G1 X80.534 Y93.303 E47.32108
G1 X81.01 Y92.799 E47.39595
G10
;MESH:elloven pad.stl(5)
G0 F4500 X82.898 Y94.521
G0 X83.277 Y127.661
;TYPE:WALL-OUTER
G11
G1 F1800 X83.409 Y127.743 E47.41273
G1 X92.791 Y127.743 E48.42599
G1 X92.923 Y127.661 E48.44277
G1 X92.923 Y95.442 E51.92242
G1 X92.923 Y95.34 E51.93344
G1 X92.791 Y95.258 E51.95022
G1 X83.409 Y95.257 E52.96348
G1 X83.278 Y95.338 E52.98011
G1 X83.277 Y127.661 E56.471
G0 F4500 X83.409 Y127.743
G0 X83.454 Y127.743
G0 X83.677 Y127.343
;TYPE:WALL-INNER
G1 F1800 X92.523 Y127.343 E57.42637
G1 X92.523 Y95.658 E60.84835
G1 X83.679 Y95.658 E61.8035
G1 X83.677 Y127.343 E65.22548
G0 F4500 X84.057 Y126.963
;TYPE:SKIN
G1 F1800 X92.143 Y126.963 E66.0551
G1 X92.143 Y96.038 E69.22801
G1 X84.059 Y96.038 E70.05742
G1 X84.057 Y126.963 E73.23033
G0 F4500 X84.335 Y126.762
G1 F1800 X84.256 Y126.683 E73.24179
G0 F4500 X84.256 Y126.117
G1 F1800 X84.901 Y126.762 E73.33538
G0 F4500 X85.467 Y126.762
G1 F1800 X84.256 Y125.551 E73.51109
G0 F4500 X84.256 Y124.986
G1 F1800 X86.032 Y126.762 E73.76879
G0 F4500 X86.598 Y126.762
G1 F1800 X84.256 Y124.42 E74.10861
G0 F4500 X84.256 Y123.854
G1 F1800 X87.164 Y126.762 E74.53056
G0 F4500 X87.73 Y126.762
G1 F1800 X84.256 Y123.289 E75.03455
G0 F4500 X84.256 Y122.723
G1 F1800 X88.295 Y126.762 E75.62061
G0 F4500 X88.861 Y126.762
G1 F1800 X84.256 Y122.157 E76.28878
G0 F4500 X84.256 Y121.591
G1 F1800 X89.427 Y126.762 E77.03909
G0 F4500 X89.992 Y126.762
G1 F1800 X84.256 Y121.026 E77.87137
G0 F4500 X84.256 Y120.46
G1 F1800 X90.558 Y126.762 E78.78578
G0 F4500 X91.124 Y126.762
G1 F1800 X84.256 Y119.894 E79.78232
G0 F4500 X84.256 Y119.329
G1 F1800 X91.689 Y126.762 E80.86083
G0 F4500 X91.942 Y126.449
G1 F1800 X84.256 Y118.763 E81.97606
G0 F4500 X84.256 Y118.197
G1 F1800 X91.942 Y125.884 E83.09136
G0 F4500 X91.942 Y125.318
G1 F1800 X84.256 Y117.632 E84.20658
G0 F4500 X84.256 Y117.066
G1 F1800 X91.942 Y124.752 E85.32181
G0 F4500 X91.942 Y124.187
G1 F1800 X84.257 Y116.501 E86.43696
G0 F4500 X84.257 Y115.935
G1 F1800 X91.942 Y123.621 E87.55211
G0 F4500 X91.942 Y123.055
G1 F1800 X84.257 Y115.37 E88.66719
G0 F4500 X84.257 Y114.804
G1 F1800 X91.942 Y122.489 E89.78227
G0 F4500 X91.942 Y121.924
G1 F1800 X84.257 Y114.238 E90.89743
G0 F4500 X84.257 Y113.673
G1 F1800 X91.942 Y121.358 E92.01251
G0 F4500 X91.942 Y120.792
G1 F1800 X84.257 Y113.107 E93.12759
G0 F4500 X84.257 Y112.541
G1 F1800 X91.942 Y120.227 E94.24274
G0 F4500 X91.942 Y119.661
G1 F1800 X84.257 Y111.976 E95.35782
G0 F4500 X84.257 Y111.41
G1 F1800 X91.942 Y119.095 E96.4729
G0 F4500 X91.942 Y118.53
G1 F1800 X84.257 Y110.844 E97.58806
G0 F4500 X84.257 Y110.278
G1 F1800 X91.942 Y117.964 E98.70321
G0 F4500 X91.942 Y117.398
G1 F1800 X84.257 Y109.713 E99.81829
G0 F4500 X84.257 Y109.147
G1 F1800 X91.942 Y116.833 E100.93344
G0 F4500 X91.942 Y116.267
G1 F1800 X84.257 Y108.581 E102.0486
G0 F4500 X84.257 Y108.016
G1 F1800 X91.942 Y115.701 E103.16368
G0 F4500 X91.942 Y115.136
G1 F1800 X84.257 Y107.45 E104.27883
G0 F4500 X84.257 Y106.884
G1 F1800 X91.942 Y114.57 E105.39398
G0 F4500 X91.942 Y114.004
G1 F1800 X84.258 Y106.319 E106.50899
G0 F4500 X84.258 Y105.754
G1 F1800 X91.942 Y113.439 E107.624
G0 F4500 X91.942 Y112.873
G1 F1800 X84.258 Y105.188 E108.73901
G0 F4500 X84.258 Y104.622
G1 F1800 X91.942 Y112.307 E109.85401
G0 F4500 X91.942 Y111.741
G1 F1800 X84.258 Y104.057 E110.96895
G0 F4500 X84.258 Y103.491
G1 F1800 X91.942 Y111.176 E112.08396
G0 F4500 X91.942 Y110.61
G1 F1800 X84.258 Y102.925 E113.19897
G0 F4500 X84.258 Y102.36
G1 F1800 X91.942 Y110.044 E114.3139
G0 F4500 X91.942 Y109.479
G1 F1800 X84.258 Y101.794 E115.42891
G0 F4500 X84.258 Y101.228
G1 F1800 X91.942 Y108.913 E116.54392
G0 F4500 X91.942 Y108.347
G1 F1800 X84.258 Y100.663 E117.65885
G0 F4500 X84.258 Y100.097
G1 F1800 X91.942 Y107.782 E118.77386
G0 F4500 X91.942 Y107.216
G1 F1800 X84.258 Y99.531 E119.88887
G0 F4500 X84.258 Y98.965
G1 F1800 X91.942 Y106.65 E121.00388
G0 F4500 X91.942 Y106.085
G1 F1800 X84.258 Y98.4 E122.11888
G0 F4500 X84.258 Y97.834
G1 F1800 X91.942 Y105.519 E123.23389
G0 F4500 X91.942 Y104.953
G1 F1800 X84.258 Y97.268 E124.3489
G0 F4500 X84.258 Y96.703
G1 F1800 X91.942 Y104.388 E125.46391
G0 F4500 X91.942 Y103.822
G1 F1800 X84.358 Y96.237 E126.56441
G0 F4500 X84.924 Y96.237
G1 F1800 X91.942 Y103.256 E127.58278
G0 F4500 X91.942 Y102.69
G1 F1800 X85.489 Y96.237 E128.5191
G0 F4500 X86.055 Y96.237
G1 F1800 X91.942 Y102.125 E129.37336
G0 F4500 X91.942 Y101.559
G1 F1800 X86.621 Y96.237 E130.1455
G0 F4500 X87.186 Y96.237
G1 F1800 X91.942 Y100.993 E130.83559
G0 F4500 X91.942 Y100.428
G1 F1800 X87.752 Y96.237 E131.44363
G0 F4500 X88.318 Y96.237
G1 F1800 X91.942 Y99.862 E131.96954
G0 F4500 X91.942 Y99.296
G1 F1800 X88.884 Y96.237 E132.41332
G0 F4500 X89.449 Y96.237
G1 F1800 X91.942 Y98.731 E132.77512
G0 F4500 X91.942 Y98.165
G1 F1800 X90.015 Y96.237 E133.0548
G0 F4500 X90.581 Y96.237
G1 F1800 X91.942 Y97.599 E133.25235
G0 F4500 X91.942 Y97.034
G1 F1800 X91.146 Y96.237 E133.36792
G0 F4500 X91.712 Y96.237
G1 F1800 X91.942 Y96.468 E133.40137
G10
;MESH:elloven pad.stl(1)
G0 F4500 X92.423 Y96.467
G0 X92.704 Y127.071
G0 X95.196 Y127.073
G0 X94.976 Y127.66
;TYPE:WALL-OUTER
G11
G1 F1800 X95.109 Y127.743 E133.4183
G1 X104.491 Y127.743 E134.43155
G1 X104.623 Y127.661 E134.44834
G1 X104.623 Y95.442 E137.92799
G1 X104.623 Y95.34 E137.939
G1 X104.491 Y95.258 E137.95579
G1 X95.109 Y95.257 E138.96904
G1 X94.977 Y95.339 E138.98583
G1 X94.976 Y127.66 E142.47649
G0 F4500 X95.109 Y127.743
G0 X95.153 Y127.743
G0 X95.477 Y127.073
G0 X95.549 Y95.829
G0 X95.377 Y95.657
;TYPE:WALL-INNER
G1 F1800 X95.377 Y127.343 E145.89858
G1 X104.223 Y127.343 E146.85395
G1 X104.223 Y95.658 E150.27593
G1 X95.377 Y95.657 E151.2313
G0 F4500 X95.757 Y96.038
;TYPE:SKIN
G1 F1800 X95.757 Y126.963 E154.4042
G1 X103.843 Y126.963 E155.23383
G1 X103.843 Y100.081 E157.99192
G1 X103.843 Y96.038 E158.40673
G1 X95.757 Y96.038 E159.23636
G0 F4500 X95.477 Y96.039
G0 X104.051 Y95.83
G0 X104.123 Y96.853
G0 X103.642 Y96.854
G1 F1800 X103.026 Y96.237 E159.32581
G0 F4500 X102.46 Y96.237
G1 F1800 X103.642 Y97.42 E159.49739
G0 F4500 X103.642 Y97.985
G1 F1800 X101.894 Y96.237 E159.75102
G0 F4500 X101.329 Y96.237
G1 F1800 X103.642 Y98.551 E160.0867
G0 F4500 X103.642 Y99.117
G1 F1800 X100.763 Y96.237 E160.50451
G0 F4500 X100.197 Y96.237
G1 F1800 X103.642 Y99.682 E161.00438
G0 F4500 X103.642 Y100.248
G1 F1800 X99.632 Y96.237 E161.5863
G0 F4500 X99.066 Y96.237
G1 F1800 X103.642 Y100.814 E162.25034
G0 F4500 X103.642 Y101.38
G1 F1800 X98.5 Y96.237 E162.99651
G0 F4500 X97.934 Y96.237
G1 F1800 X103.642 Y101.945 E163.82473
G0 F4500 X103.642 Y102.511
G1 F1800 X97.369 Y96.237 E164.735
G0 F4500 X96.803 Y96.237
G1 F1800 X103.642 Y103.077 E165.7274
G0 F4500 X103.642 Y103.642
G1 F1800 X96.237 Y96.237 E166.80185
G0 F4500 X95.956 Y96.522
G1 F1800 X103.642 Y104.208 E167.91708
G0 F4500 X103.642 Y104.774
G1 F1800 X95.956 Y97.087 E169.03238
G0 F4500 X95.956 Y97.653
G1 F1800 X103.642 Y105.339 E170.1476
G0 F4500 X103.642 Y105.905
G1 F1800 X95.956 Y98.219 E171.26283
G0 F4500 X95.956 Y98.784
G1 F1800 X103.642 Y106.471 E172.37813
G0 F4500 X103.642 Y107.036
G1 F1800 X95.956 Y99.35 E173.49335
G0 F4500 X95.956 Y99.916
G1 F1800 X103.642 Y107.602 E174.60858
G0 F4500 X103.642 Y108.168
G1 F1800 X95.956 Y100.481 E175.72388
G0 F4500 X95.956 Y101.047
G1 F1800 X103.642 Y108.733 E176.8391
G0 F4500 X103.642 Y109.299
G1 F1800 X95.956 Y101.613 E177.95433
G0 F4500 X95.956 Y102.179
G1 F1800 X103.642 Y109.865 E179.06955
G0 F4500 X103.642 Y110.43
G1 F1800 X95.956 Y102.744 E180.18478
G0 F4500 X95.956 Y103.31
G1 F1800 X103.642 Y110.996 E181.3
G0 F4500 X103.642 Y111.562
G1 F1800 X95.956 Y103.876 E182.41523
G0 F4500 X95.956 Y104.441
G1 F1800 X103.642 Y112.128 E183.53053
G0 F4500 X103.642 Y112.693
G1 F1800 X95.956 Y105.007 E184.64575
G0 F4500 X95.956 Y105.573
G1 F1800 X103.642 Y113.259 E185.76098
G0 F4500 X103.642 Y113.825
G1 F1800 X95.956 Y106.138 E186.87628
G0 F4500 X95.956 Y106.704
G1 F1800 X103.642 Y114.39 E187.9915
G0 F4500 X103.642 Y114.956
G1 F1800 X95.956 Y107.27 E189.10673
G0 F4500 X95.956 Y107.835
G1 F1800 X103.642 Y115.522 E190.22203
G0 F4500 X103.642 Y116.087
G1 F1800 X95.956 Y108.401 E191.33725
G0 F4500 X95.956 Y108.967
G1 F1800 X103.642 Y116.653 E192.45248
G0 F4500 X103.642 Y117.219
G1 F1800 X95.956 Y109.532 E193.56778
G0 F4500 X95.956 Y110.098
G1 F1800 X103.642 Y117.784 E194.683
G0 F4500 X103.642 Y118.35
G1 F1800 X95.956 Y110.664 E195.79823
G0 F4500 X95.956 Y111.23
G1 F1800 X103.642 Y118.916 E196.91345
G0 F4500 X103.642 Y119.481
G1 F1800 X95.956 Y111.795 E198.02868
G0 F4500 X95.956 Y112.361
G1 F1800 X103.642 Y120.047 E199.1439
G0 F4500 X103.642 Y120.613
G1 F1800 X95.956 Y112.927 E200.25913
G0 F4500 X95.956 Y113.492
G1 F1800 X103.642 Y121.179 E201.37443
G0 F4500 X103.642 Y121.744
G1 F1800 X95.956 Y114.058 E202.48965
G0 F4500 X95.956 Y114.624
G1 F1800 X103.642 Y122.31 E203.60488
G0 F4500 X103.642 Y122.876
G1 F1800 X95.956 Y115.189 E204.72018
G0 F4500 X95.956 Y115.755
G1 F1800 X103.642 Y123.441 E205.8354
G0 F4500 X103.642 Y124.007
G1 F1800 X95.956 Y116.321 E206.95063
G0 F4500 X95.956 Y116.886
G1 F1800 X103.642 Y124.573 E208.06593
G0 F4500 X103.642 Y125.138
G1 F1800 X95.956 Y117.452 E209.18115
G0 F4500 X95.956 Y118.018
G1 F1800 X103.642 Y125.704 E210.29638
G0 F4500 X103.642 Y126.27
G1 F1800 X95.956 Y118.583 E211.41168
G0 F4500 X95.956 Y119.149
G1 F1800 X103.569 Y126.762 E212.51631
G0 F4500 X103.003 Y126.762
G1 F1800 X95.956 Y119.715 E213.53882
G0 F4500 X95.956 Y120.28
G1 F1800 X102.437 Y126.762 E214.47927
G0 F4500 X101.872 Y126.762
G1 F1800 X95.956 Y120.846 E215.33767
G0 F4500 X95.956 Y121.412
G1 F1800 X101.306 Y126.762 E216.11395
G0 F4500 X100.74 Y126.762
G1 F1800 X95.956 Y121.978 E216.8081
G0 F4500 X95.956 Y122.543
G1 F1800 X100.175 Y126.762 E217.42027
G0 F4500 X99.609 Y126.762
G1 F1800 X95.956 Y123.109 E217.95031
G0 F4500 X95.956 Y123.675
G1 F1800 X99.043 Y126.762 E218.39823
G0 F4500 X98.478 Y126.762
G1 F1800 X95.956 Y124.24 E218.76417
G0 F4500 X95.956 Y124.806
G1 F1800 X97.912 Y126.762 E219.04798
G0 F4500 X97.346 Y126.762
G1 F1800 X95.956 Y125.372 E219.24967
G0 F4500 X95.956 Y125.937
G1 F1800 X96.78 Y126.762 E219.3693
G0 F4500 X96.215 Y126.762
G1 F1800 X95.956 Y126.503 E219.40688
G10
;MESH:elloven pad.stl
G0 F4500 X95.477 Y126.504
G0 X104.051 Y127.171
G0 X106.896 Y127.073
G0 X106.676 Y127.66
;TYPE:WALL-OUTER
G11
G1 F1800 X106.809 Y127.743 E219.42382
G1 X116.191 Y127.743 E220.43707
G1 X116.323 Y127.661 E220.45385
G1 X116.323 Y95.442 E223.93351
G1 X116.323 Y95.34 E223.94452
G1 X116.191 Y95.258 E223.96131
G1 X106.809 Y95.257 E224.97456
G1 X106.677 Y95.339 E224.99134
G1 X106.676 Y127.66 E228.48201
G0 F4500 X106.809 Y127.743
G0 X106.853 Y127.743
G0 X107.177 Y127.073
G0 X107.249 Y95.829
G0 X107.077 Y95.657
;TYPE:WALL-INNER
G1 F1800 X107.077 Y127.343 E231.9041
G1 X115.923 Y127.343 E232.85947
G1 X115.923 Y95.658 E236.28145
G1 X107.077 Y95.657 E237.23682
G0 F4500 X107.457 Y96.038
;TYPE:SKIN
G1 F1800 X107.457 Y126.963 E240.40972
G1 X115.543 Y126.963 E241.23934
